!!!!SEGMENT: pl-wn--mus-iii-72-681-cim_katski-apolinary--wielki-mazur.krn
!!!cenid: 18xx:3632
!!!COM: Kątski, Apolinary
!!!COM-rismID: pe30020040
!!!CDT: 1825-1879
!!!CNT: Polish
!!!OTL: Wielki mazur
!!!PDT:
!!!AGN:
!!!SMS-siglum: PL-Wn
!!!SMS-shelfmark: Mus.III.72.681 Cim
!!!SMS-shelfwork: W
!!!SMS-variant:
!!!SMS-altvar:
!!!NIFC-rismSourceID:
!!!NIFC-rismChildID:
!!!NIFC-islandoraID:
!!!URL-pdf-islandora:
!!!URL-scan: https://polona.pl/item/wielki-mazur,MTA1NjQ1Ng/15 @EN{Scan on Polona} @PL{Skany w portalu Polona}
!!!ONB-nifc:
!!!AIN: 2 piano
!!!key: C
**kern	**kern	**dynam
*group1	*group1	*
*part2	*part1	*part1
*staff2	*staff1	*
*I"Piano	*I"Piano	*
*I'pf	*I'pf	*
*Ipiano	*Ipiano	*
*ICklav	*ICklav	*
*clefF4	*clefG2	*
*k[]	*k[]	*
*C:	*C:	*
*M3/4	*M3/4	*
=1	=1	=1
*xywh-1:332,732,2293,1090	*xywh-1:332,732,2293,1090	*
!	!	!LO:DY:rj
8.CC/L 8.C/	8.e/L 8.cc/ 8.ee/	ff
!	!LO:TX:b:t=con fuoco	!
16CC/Jk 16C/	16e/Jk 16cc/ 16ee/	.
4CC/ 4C/	4f\ 4dd\ 4ff\	.
4CC/ 4C/	4f#X\ 4dd#X\ 4ff#X\	.
=2	=2	=2
4CC/ 4C/	4a\ 4ff#X\ 4aa\	.
4CC/ 4C/	4g\ 4ee\ 4gg\	.
4r	4r	.
*clefG2	*	*
=3	=3	=3
4cc\ 4ee\	4aa\ 4aaa\	pp
4cc\ 4ee\	4gg\ 4ggg\	.
4r	4r	.
=4	=4	=4
2.r	4.a/	>
.	(<8g/L	.
.	8e/	.
.	8c/J)	]
*clefF4	*	*
=5	=5	=5
!	!	!LO:DY:rj
8.GGG/L 8.GG/	8.B/L 8.g/ 8.b/	ff
16GGG/Jk 16GG/	16B/Jk 16g/ 16b/	.
4GGG/ 4GG/	4c/ 4a/ 4cc/	.
4GGG/ 4GG/	4c/ 4a/ 4cc/	.
*xywh-1:244,1797,2393,576	*xywh-1:244,1797,2393,576	*
!!LO:LB:g=original
=6	=6	=6
4GGG/ 4GG/	4e/ 4ccn/ 4ee/	.
4GGG/ 4GG/	4d/ 4b/ 4dd/	.
4r	4r	.
*clefG2	*	*
=7	=7	=7
4g/ 4b/	4ee\ 4eee\	pp
4g/ 4b/	4dd\ 4ddd\	.
4r	4r	.
=8	=8	=8
(<4.e/	(>4.ee\	>
8d/L	8dd\L	.
8B/	8b\	.
8G/J)	8g\J)	]]
*clefF4	*	*
=9	=9	=9
4DD/ 4AA/ 4C/	8.A/L 8.d/ 8.f#X/ 8.a/	f <
.	16A/Jk 16d/ 16f#/ 16a/	.
4DD/ 4AA/ 4C/	4B/ 4d/ 4f#/ 4b/	.
4DD/ 4AA/ 4C/	4A/ 4d/ 4f#/ 4a/	.
=10	=10	=10
4DD/ 4AA/ 4C/	8.a\L 8.dd\ 8.ff#X\ 8.aa\	.
.	16a\Jk 16dd\ 16ff#\ 16aa\	.
4DD/ 4AA/ 4C/	4b\ 4dd\ 4ff#\ 4bb\	.
4DD/ 4AA/ 4C/	4a\ 4dd\ 4ff#\ 4aa\	.
=11	=11	=11
*	*8va	*
4DD/ 4AA/ 4C/	8.aa\L 8.ddd\ 8.fff#X\ 8.aaa\	.
.	16aa\Jk 16ddd\ 16fff#\ 16aaa\	.
4DD/ 4AA/ 4C/	4bb\ 4ddd\ 4fff#\ 4bbb\	[
4DD/ 4AA/ 4C/	4aa\ 4ddd\ 4fff#\ 4aaa\	.
*xywh-1:244,2373,2380,588	*xywh-1:244,2373,2380,588	*
!!LO:LB:g=original
=12	=12	=12
4DD/ 4AA/ 4C/	4.ddd\ 4.dddd\	.
4D\ 4A\ 4c\	.	.
.	8ccc\L 8cccc\	.
4D\ 4A\ 4c\	8bb\ 8bbb\	.
.	8aa\J 8aaa\	.
=13	=13	=13
4GG:\ 4D:\ 4B:\	4gg\ 4ggg\	.
*	*X8va	*
!	!LO:TX:b:t=marcato	!
!	!LO:TX:a:t=Trombe	!
4r	8g^</L	.
.	8g^</J	.
4r	4g^</	.
=14	=14	=14
4r	8g^</L	.
.	8g^</J	.
4r	4g^</	.
4CC/ 4C/	4e/ 4g/ 4cc/	sf
=15	=15	=15
4GGG/ 4GG/	4d/ 4g/ 4b/	sf
4r	4g^</	.
4r	8g^</L	.
.	8g^</J	.
=16	=16	=16
4r	8g^</L	.
.	8g^</J	.
4r	4g^</	.
4CC/ 4C/	4e/ 4g/ 4cc/	sf
=17	=17	=17
4GGG/ 4GG/	4d/ 4g/ 4b/	sf
4r	8g^</L	.
.	8g^</J	.
4r	4g^</	.
=18	=18	=18
2.r	4g^</	.
.	4d^</	.
.	4g^</	.
!!LO:LB:g=original
*xywh-1:238,2962,2387,632	*xywh-1:238,2962,2387,632	*
=19	=19	=19
2.r	4g^</ 4b/	.
.	(<8b/L	.
.	8g/J)	.
.	4b^<\	.
=20	=20	=20
2.r	4g^</ 4b/	.
.	4e^</ 4g/	.
.	4g^</ 4b/	.
=21	=21	=21
2.r	4b^>\ 4dd\	.
.	(>8dd\L	.
.	8b\J)	.
.	4dd^>\	.
=22	=22	=22
2.r	4b^>\ 4dd\	.
.	4g^</ 4b/	.
.	4b^>\ 4dd\	.
=23	=23	=23
4GGG^>/ 4BBB 4DD 4GG	4g^>\ 4b\ 4dd\ 4gg\	ff
!	!LO:TX:b:t=pesante	!
8GGG^>/L 8BBB/ 8DD/ 8GG/	8g^>\L 8b\ 8dd\ 8gg\	.
8GGG^>/J 8BBB/ 8DD/ 8GG/	8g^>/J 8b/ 8dd/ 8gg/	.
4GGG^>/ 4BBB/ 4DD/ 4GG/	4g^>\ 4b\ 4dd\ 4gg\	.
=24	=24	=24
4GGG^>/ 4BBB/ 4DD/ 4GG/	4g^>\ 4b\ 4dd\ 4gg\	.
4GGG^>/ 4BBB/ 4DD/ 4GG/	4b^>\ 4dd\ 4gg\ 4bb\	.
4GGG^>/ 4BBB/ 4DD/ 4GG/	4dd^>\ 4gg\ 4bb\ 4ddd\	.
=25	=25	=25
4GGG^>/ 4BBB/ 4DD/ 4GG/	4gg^>\ 4bb\ 4ddd\ 4ggg\	.
2ryy	2ryy	.
!!LO:PB:g=original
*xywh-2:515,603,2444,451	*xywh-2:515,603,2444,451	*
=26||	=26||	=26||
!	!LO:TX:b:t=con energia	!LO:DY:rj
4CC/ 4C/	8.e/L	f
.	(<16e/Jk	.
4E\ 4G\ 4c\	4f/)	.
4E\ 4G\ 4c\	(<4f#X/	.
=27	=27	=27
4CC/ 4C/	8a/)	.
.	8r	.
2E^>\ 2G\ 2c\	(>4.g^</	.
.	8ee\	.
=28	=28	=28
.	16qqee/LL	p
.	(<16qqff/JJ	.
4GG/	8.ee\L)	.
.	16dd\Jk)	.
2F^\ 2G\ 2B\	(4.dd\	.
.	8ee\	.
=29	=29	=29
.	16qqdd/LL	.
.	(<16qqee/JJ	.
4CC/ 4C	8.dd\L)	.
.	16cc\Jk)	.
2E^>\ 2G\ 2c\	2cc^>\	.
=30	=30	=30
4CC/ 4C/	8.e/L	f
.	(<16e/Jk	.
4E\ 4G\ 4c\	4f/)	.
4E\ 4G\ 4c\	(<4f#X/	.
=31	=31	=31
4CC/ 4C/	8a/)	.
.	8r	.
2E^>\ 2G\ 2c\	(>4.g^</	.
.	8ee\)	.
!!LO:LB:g=original
*xywh-2:527,1154,2414,509	*xywh-2:527,1154,2414,509	*
=32	=32	=32
.	(>(<16qqee/LL	.
.	16qqff/JJ	.
*	*^	*
*	*	*xywh-2:527,1154,2414,509	*
4FF/ 4F/	8.ee\L)	4ryy	.
.	16dd\Jk)	.	p
4A^>\ 4d\	(>4.dd^>/	2a\	.
4FFn/ 4Fn/	.	.	.
.	8cc/)	.	.
*	*v	*v	*
=33	=33	=33
4GG/ 4G/	(>8b\L	.
.	8dd\J	.
2G^>\ 2B\ 2d\	16aa\)	.
.	16r	.
.	8ee^>\L 8gg\	.
.	8dd#X^>\ 8ff#X\	.
.	8ddn^>\J 8ffn\	.
=34	=34	=34
4CC/ 4C/	8.e/L 8.cc/ 8.ee/	ff
.	16e/Jk 16cc/ 16ee/	.
4E\ 4G\ 4c\	4f\ 4dd\ 4ff\	.
4E\ 4G\ 4c\	4f#X\ 4dd#X\ 4ff#X\	.
=35	=35	=35
4CC/ 4C/	4a\ 4ffn\ 4aa\	.
2E^>\ 2G\ 2c\	4..g^>\ 4..ee\ 4..gg\	.
.	16ee\ 16gg\ 16eee\	pp
=36	=36	=36
4GG/	8.ee\L 8.gg\ 8.eee\	.
.	16dd\Jk 16ff\ 16ddd\	.
2B^>\ 2f\ 2g\	4.dd\ 4.ff\ 4.ddd\	.
.	8ee\ 8gg\ 8eee\	.
=37	=37	=37
4C/	8.dd\L 8.ff\ 8.ddd\	.
.	16cc\Jk 16ee\ 16ddd\	.
2c\ 2e\ 2g\	2cc\ 2ee\ 2ccc\	.
=38	=38	=38
4CC/ 4E/	8.e/L 8.cc/ 8.ee/	ff
.	16e/Jk 16cc/ 16ee/	.
4E\ 4G\ 4c\	4f#X\ 4dd#X\ 4ff#X\	.
!LO:TX:t=P:4\right:problem	!	!
4E\ 4G\ 4c\	4f#\ 4dd#\ 4ff#\	.
!!LO:LB:g=original
*xywh-2:551,1752,2373,474	*xywh-2:551,1752,2373,474	*
=39	=39	=39
4CC/ 4C/	4a\ 4ff#X\ 4aa\	.
2E\ 2G\ 2c\	4..g^>\ 4..ee\ 4..gg\	.
.	16ee\ 16gg\ 16eee\	.
=40	=40	=40
4GG/	8.ee\L 8.gg\ 8.eee\	.
.	16dd\Jk 16ff\ 16ddd\	.
2B\ 2f\ 2g\	4.dd^>\ 4.ff\ 4.ddd\	.
.	8ee\ 8gg\ 8eee\	.
=41	=41	=41
4C/	4cc\ 4ee\ 4gg\ 4ccc\	.
*	*8va	*
4CC/ 4C/	4ccc\ 4eee\ 4cccc\	.
*	*X8va	*
4r	4r	.
=42:|!	=42:|!	=42:|!
4CC/ 4C/	8.c/L	p
.	(<16c/Jk	.
2E\ 2G\ 2B-X\	4d/	.
.	8.c/L	.
.	16B-X/Jk)	.
=43	=43	=43
4FF/ 4F/	(<8.A/L	.
.	16c/Jk	.
2F\ 2A\	4.a^</	.
.	8f/)	.
=44	=44	=44
4CC/ 4C/	(>8.e/L	.
.	16g/Jk	.
4G\ 4B-X\ 4c\	4.dd^>\	.
4G\ 4B-\ 4c\	.	.
.	8cc\)	.
=45	=45	=45
4FF/ 4F/	8.b-X'</L	.
.	16a'</Jk	.
4F\ 4A\ 4c\	8g'</L	.
.	8f'</	.
4F\ 4A\ 4c\	8e'</	.
.	8d'</J	.
!!LO:LB:g=original
*xywh-2:539,2332,2391,498	*xywh-2:539,2332,2391,498	*
=46	=46	=46
4CC/ 4C/	8.c/L	.
.	(<16c/Jk	.
2E\ 2G\ 2B-X\	4d/	.
.	8.c/L	.
.	16B-X/Jk)	.
=47	=47	=47
4FF/ 4F/	(<8.A/L	.
.	16d/Jk	.
2F\ 2A\	4.a/	.
.	8f/)	.
=48	=48	=48
4CC/ 4C/	(<8e/L	.
.	16r	.
.	16dd/Jk)	.
4G\ 4B-X\ 4c\	8cc/L	.
.	8b-X/	.
4G\ 4B-\ 4c\	(<8.d/	.
.	16e/Jk	.
=49	=49	=49
4FF/ 4F/	2f/)	.
4F\ 4A\ 4c\	.	.
4F\ 4A\ 4c\	4r	.
=50	=50	=50
4CC/ 4C/	8.cc\L	p
.	(>16cc\Jk	.
2E\ 2G\ 2B-X\ 2c\	4dd\	.
.	8.cc\L	.
.	16b-X\Jk)	.
=51	=51	=51
4FF/ 4F/	(>8.a\L	.
.	16cc\Jk	.
2F\ 2A\ 2c\	4.a\ 4.aa\	.
.	8ff\)	.
=52	=52	=52
4CC/ 4C/	(>8.ee\L	.
.	16gg\Jk	.
4E\ 4G 4B-X 4c	4.dd\ 4.ddd\	.
4E\ 4G\ 4B-\ 4c\	.	.
.	8cc\) 8ccc\	.
!!LO:LB:g=original
*xywh-2:539,2936,2379,480	*xywh-2:539,2936,2379,480	*
=53	=53	=53
4FF/ 4F/	8.b-X'>\L 8.bb-X\	.
.	16a'>\Jk 16aa\	.
4F\ 4A\ 4c\	8g'>\L 8gg\	.
.	8f'>\ 8ff\	.
4F\ 4A\ 4c\	8e'>\ 8ee\	.
.	8d'>\J 8dd\	.
=54	=54	=54
4CC/ 4C/	8.cc\L	.
.	(>16cc\Jk	.
2E\ 2G\ 2B-X\ 2c\	4dd\	.
.	8.cc\L	.
.	16b-X\Jk)	.
=55	=55	=55
4FF/ 4F/	(>8.a\L	.
.	16cc\Jk	.
2F\ 2A\ 2c\	4.a\ 4.aa\	.
.	8ff\)	.
=56	=56	=56
4CC/ 4C/	(>8ee\L	.
.	16ddd'\Jk)	.
.	16r	.
4E\ 4G\ 4B-X\ 4c\	8ccc\L	.
.	8bb-X\	.
4C\ 4E\ 4G\ 4B-\	8dd'>\	.
.	8ee'>\J	.
=57	=57	=57
4F\ 4A\	4ff\	.
4FF:/ 4AA:/ 4C:/ 4F:/	4aa:\ 4ccc:\ 4fff:\	sf
4r	4r	.
=58||	=58||	=58||
4CC/ 4C/	8.e\L 8.cc\ 8.ee\	ff
.	16e\Jk 16cc\ 16ee\	.
4E\ 4G\ 4c\	4f\ 4dd\ 4ff\	.
4E\ 4G\ 4c\	4f#X\ 4dd#X\ 4ff#X\	.
=59	=59	=59
4CC/ 4C/	4a\ 4ffn\ 4aa\	.
2E^>\ 2G\ 2c\	4..g^>\ 4..ee\ 4..gg\	.
.	16ee\ 16gg\ 16eee\	pp
!!LO:PB:g=original
*xywh-3:223,673,2238,566	*xywh-3:223,673,2238,566	*
=60	=60	=60
4GG/	8.ee\L 8.gg\ 8.eee\	.
.	16dd\Jk 16ff\ 16ddd\	.
2B^>\ 2f\ 2g\	4.dd\ 4.ff\ 4.ddd\	.
.	8ee\ 8gg 8eee	.
=61	=61	=61
4CC/ 4C/	8.dd\L 8.ff\ 8.ddd\	.
.	16cc\Jk 16ee 16ccc	.
2c\ 2e\ 2g\	2cc\ 2ee\ 2ccc\	.
=62	=62	=62
4CC/ 4C/	8.e/L 8.cc/ 8.ee/	ff
.	16e/Jk 16cc/ 16ee/	.
4E\ 4G\ 4c\	4f\ 4dd\ 4ff\	.
4E\ 4G\ 4c\	4f#X\ 4dd#X\ 4ff#X\	.
=63	=63	=63
4CC/ 4C/	4a\ 4ffn\ 4aa\	.
2E^>\ 2G\ 2e\	4..g^>\ 4..ee\ 4..gg\	.
.	16ee\ 16eee\	.
=64	=64	=64
4DD/ 4D/	8.ee\L 8.eee	.
.	16dd\Jk 16ddd\	.
4F#X\ 4A\ 4d\	4dd\ 4ddd\	.
4F#\ 4A\ 4d\	4cc\ 4ccc\	.
=65	=65	=65
4GGG/ 4GG/	4.b\ 4.bb\	.
2G\ 2B\ 2d\	.	.
.	8g\L 8gg\	.
.	8f#X\ 8ff#X\	.
.	8e\J 8ee	.
!!LO:LB:g=original
*xywh-3:223,1289,2234,513	*xywh-3:223,1289,2234,513	*
=66||	=66||	=66||
!	!LO:TX:b:t=8	!
4DD/ 4D/	(>[>4dd\ 4ddd\	.
4D\ 4F#X\ 4A\ 4c\	8.dd\L]	.
.	16cc\Jk)	.
4D\ 4F#\ 4A\ 4c\	(<8.a/L	.
.	16b/Jk)	.
=67	=67	=67
4GG/	(<8.g/L	.
.	16b/Jk)	.
2D\ 2G\ 2B\	4ee^>\	.
.	4dd\	.
=68	=68	=68
4DD/ 4D/	(>8.dd\L	.
.	16ff#X\Jk)	.
2D\ 2F#X\ 2A\ 2c\	4b^>\ 4bb\	.
.	4a\ 4aa\	.
=69	=69	=69
4GG/	(>8.gg\L	.
.	16bb\Jk)	.
2D\ 2G\ 2B\	4ee^>\ 4ggg\	.
.	4dd\ 4ddd\	.
=70	=70	=70
4DD/ 4D/	(>[>4dd\	.
4D\ 4F#X\ 4A\ 4c\	8.dd\L]	.
.	16cc\Jk)	.
4D\ 4F#\ 4c\	(<8.a/L	.
.	16b/Jk)	.
=71	=71	=71
4GG/	(<8.g/L	.
.	16b/Jk)	.
2D\ 2G\ 2B\	4ee^>\	.
.	4dd\	.
!!LO:LB:g=original
*xywh-3:210,1873,2247,504	*xywh-3:210,1873,2247,504	*
=72	=72	=72
4DD/ 4D/	4dd\ 4ddd\	.
4D\ 4F#X\ 4A\ 4c\	8cc^>\L 8ccc\	.
.	8a^>\J 8aa\	.
4D\ 4F#\ 4A\ 4c\	8e^</L 8ee/	.
.	8f#X^</J 8ff#X/	.
=73	=73	=73
4GG/	4.g^>\ 4.gg\	.
2D\ 2G\ 2B\	.	.
.	8g^>\L 8gg\	.
.	8f#X^>\ 8ff#X\	.
.	8e^>\J 8ee\	.
=74	=74	=74
4DD/ 4D/	(>[>4dd\	f
4D\ 4F#X\ 4A\ 4c\	8.dd\L]	.
.	16cc\Jk)	.
4D\ 4F#\ 4A\ 4c\	(<8.a/L	.
.	16b/Jk)	.
=75	=75	=75
4GG/	(<8.g/L	.
.	16b/Jk)	.
2D\ 2G\ 2B\	4ee^>\	.
.	4dd\	.
=76	=76	=76
4DD/ 4D/	(>8.dd\L	.
.	16ff#X\Jk)	.
2D\ 2F#X\ 2A\ 2c\	4b^>\ 4bb\	.
.	4a\ 4aa\	.
=77	=77	=77
4GG/	(>8.gg\L	.
.	16bb\Jk)	.
2D\ 2G\ 2B\	4ee^>\ 4eee\	.
.	4dd\ 4ddd\	.
!!LO:LB:g=original
*xywh-3:206,2481,2247,500	*xywh-3:206,2481,2247,500	*
=78	=78	=78
4DD/ 4D/	(>[>4dd\	.
4D\ 4F#X\ 4A\ 4c\	8.dd\L]	.
.	16cc\Jk)	.
4D\ 4F#\ 4A\ 4c\	8.a/L	.
.	16b/Jk	.
=79	=79	=79
4GG/	(<8.g/L	.
.	16b/Jk)	.
2D\ 2G\ 2B\	4ee^>\	.
.	4dd\	.
=80	=80	=80
4DD/ 4D/	4dd\ 4ddd	.
4D\ 4F#X 4A 4c	8cc^>\L 8ccc	.
.	8a^>\J 8aa	.
4D\ 4F# 4A 4c	8e^</L 8ee	.
.	8f#X^</J 8ff#X	.
=81	=81	=81
8G/L 8B/	8g\L 8gg\	.
!	!LO:TX:b:t=con impeto	!
16GG/Jk 16G/	16g\Jk 16gg\	.
16r	16r	.
8FF#X^</L 8F#X/	8a^>\L 8aa\	.
8FFn^</ 8Fn/	8b^>\ 8bb\	.
8EE^</ 8E/	8cc^>\ 8ccc\	.
8DD^</J 8D/	8dd^>\J 8ddd\	.
=82	=82	=82
*	*8va	*
4CC/ 4C/	8.ee/L 8.ccc/ 8.eee/	ff
.	16ee/Jk 16ccc/ 16eee/	.
4E\ 4G/ 4c/	4ff\ 4ddd\ 4fff\	.
4E\ 4G/ 4c/	4ff#X\ 4ddd#X\ 4fff#X\	.
=83	=83	=83
4CC/ 4C/	4aa\ 4fffn\ 4aaa\	.
2E^>\ 2G\ 2c\	4..gg^>\ 4..eee\ 4..ggg\	.
*	*X8va	*
.	16ee\ 16gg\ 16ccc\	pp
!!LO:LB:g=original
*xywh-3:214,3032,2247,496	*xywh-3:214,3032,2247,496	*
=84	=84	=84
4GG/	8.ee\L 8.gg\ 8.eee\	.
.	16dd\Jk 16ff\ 16ddd\	.
2G\ 2B\ 2d\ 2f\	4.dd^>\ 4.ff\ 4.ddd\	.
.	8ee\ 8gg\ 8eee\	.
=85	=85	=85
4C/	8.dd\L 8.ff\ 8.ddd\	.
.	16cc\Jk 16ee\ 16ccc\	.
2G\ 2c\ 2e\	2cc\ 2ee\ 2ccc\	.
=86	=86	=86
*	*8va	*
4CC/ 4C/	8.ee/L 8.ccc/ 8.eee/	ff
.	16ee/Jk 16ccc/ 16eee/	.
4E\ 4G\ 4c\	4ff\ 4ddd\ 4fff\	.
4E\ 4G\ 4c\	4ff#X\ 4ddd#X\ 4fff#X\	.
=87	=87	=87
4CC/ 4C/	4aa\ 4fffn\ 4aaa\	.
2E^>\ 2G\ 2c\	4..gg\ 4..eee\ 4..ggg\	.
*	*X8va	*
.	16ee\ 16gg\ 16eee\	pp
=88	=88	=88
4GG/	8.ee\L 8.gg\ 8.eee\	.
.	16dd\Jk 16ff\ 16ddd\	.
2G\ 2B\ 2d\ 2f\	4.dd^>\ 4.ff\ 4.ddd\	.
.	8ee\ 8gg\ 8eee\	.
=89	=89	=89
4c\ 4e\	4cc\ 4ee\ 4ccc\	.
*	*8va	*
4CC/ 4C/	4ccc\ 4eee\ 4ggg\ 4cccc\	sf
*	*X8va	*
4r	4r	.
!!LO:PB:g=original
*xywh-6:691,702,2369,483	*xywh-6:691,702,2369,483	*
=90||	=90||	=90||
4CC/ 4C/	8.e\L 8.ee\	ff
.	16g\Jk 16gg\	.
4E\ 4G\ 4c\	4.cc\ 4.ccc\	.
4E\ 4G\ 4c\	.	.
.	8b\ 8bb\	.
=91	=91	=91
4FF/ 4F/	8.b\L 8.bb\	.
.	16a\Jk 16aa\	.
2F\ 2A\ 2c\	2a\ 2aa\	.
=92	=92	=92
4GGG/ 4GG/	8.b\L	.
.	16dd\Jk	.
4F\ 4G\ 4B\	4.g\ 4.gg\	.
4F\ 4G\ 4B\	.	.
.	8f\ 8ff\	.
=93	=93	=93
4CC/ 4C/	8.f\L 8.ff\	.
.	16e\Jk 16ee\	.
2E\ 2G\ 2c\	2e/ 2ee/	.
=94	=94	=94
4CC/ 4C/	8.e\L 8.ee\	.
.	16g\Jk 16gg\	.
4E\ 4G\ 4c\	4.cc\ 4.ccc\	.
4E\ 4G\ 4c\	.	.
.	8b\ 8bb\	.
=95	=95	=95
4FF/ 4F/	8.b\L 8.bb\	.
.	16a\Jk 16aa\	.
2F\ 2A\ 2c\	2a\ 2aa\	.
=96	=96	=96
4F\ 4G\ 4B\	8.g\L 8.gg\	.
.	16a\Jk 16aa\	.
4F\ 4G\ 4B\	8.b\L 8.bb\	.
.	16cc\Jk 16ccc\	.
4GGG/ 4GG/	8.dd\L 8.ddd\	.
.	16ee\Jk 16eee\	.
!!LO:LB:g=original
*xywh-6:686,1225,2369,512	*xywh-6:686,1225,2369,512	*xywh-6:686,1225,2369,512
=97	=97	=97
4CC/ 4C/	4cc\ 4ccc\	.
*	*8va	*
4C\ 4E\ 4G\ 4c\	4ccc\ 4eee\ 4ggg\ 4cccc\	.
*	*X8va	*
4r	4r	.
=98	=98	=98
*^	*	*
*xywh-6:686,1225,2369,512	*xywh-6:686,1225,2369,512	*xywh-6:686,1225,2369,512	*xywh-6:686,1225,2369,512
2.G/	(<4C\	(>8.ee\L	.
.	.	16gg\Jk	.
.	4e\	4.ee^>\ 4.ccc\	.
.	4e\)	.	.
.	.	8gg\) 8bb\	.
=99	=99	=99	=99
2.A/	(<4F\	(>8.gg\L 8.bb\	.
.	.	16ff\Jk) 16aa\	.
.	4f\	2ff^>\ 2aa\	.
.	4f\)	.	.
=100	=100	=100	=100
2.B/	(<4G\	(>8.b\L	.
.	.	16dd\Jk	.
.	4f\	4.b^>\ 4.gg\	.
.	4f\)	.	.
*xywh-6:686,1225,2369,512	*xywh-6:686,1225,2369,512	*xywh-6:686,1225,2369,512	*xywh-6:686,1225,2369,512
!	!	!LO:N:vis=4	!
.	.	8dd\) 8ff\	.
=101	=101	=101	=101
2.c/	(<4A\	(>8.dd\L 8.ff\	.
.	.	16cc\Jk) 16ee\	.
.	4e\	2cc\ 2ee\	.
.	4e\)	.	.
=102	=102	=102	=102
2.G/	(<4E\	(>8.ee\L	.
.	.	16gg\Jk	.
.	4c\	4.ee^>\ 4.ccc\	.
.	4c\)	.	.
.	.	8gg\) 8bb	.
=103	=103	=103	=103
2.A/	(<4F\	8.gg\L 8.bb\	.
.	.	16ff\Jk 16aa\	.
.	4B\	2ff\ 2aa\	.
.	4B\)	.	.
*xywh-6:686,1225,2369,512	*xywh-6:686,1225,2369,512	*	*
*v	*v	*	*
!!LO:LB:g=original
=104||	=104||	=104||
*xywh-6:715,1869,2339,498	*xywh-6:715,1869,2339,498	*xywh-6:715,1869,2339,498
*k[f#c#]	*	*
*^	*	*
!	!	!LO:TX:t=P:problem=skreślone znaki przykluczowe	!
2.F#/	(4D\	4a\ 4aa\	.
.	4c#\	8g#X\L 8gg#X\	.
.	.	8a\ 8aa\	.
.	4c#\)	8b\ 8bb\	.
.	.	8a\J 8aa\	.
*v	*v	*	*
=105	=105	=105
4E\ 4G#X\ 4B\	4g#X\ 4gg#X\	sf
4r	8.e/L	.
.	(<16d#X/Jk	.
4r	8.e/L)	.
.	(<16d#/Jk	.
=106	=106	=106
2.r	8.e/L)	.
.	(<16d#X/Jk	.
.	8.e/L)	.
.	(<16d#/Jk	.
.	8.e/L)	.
.	(<16d#/Jk	.
=107	=107	=107
2.r	8.e/L)	.
.	(<16e/Jk	.
.	8.f/L)	.
.	(<16f#X/Jk	>
.	8.g/L)	.
.	(<16g#X/Jk	.
=108	=108	=108
2.r	8.a/L)	.
.	(>16a#X/Jk	.
.	8.b\L)	.
.	(>16cc\Jk	.
.	8.cc#X\L)	.
.	16dd\Jk	]]
=109||	=109||	=109||
*k[f#c#g#]	*k[f#c#g#]	*
.	(>(<16qqcc#/LL	.
.	16qqdd/JJ	.
*ped	*	*
4EE/ 4E	8.cc#\L)	.
!	!	!LO:DY:rj
.	16b\Jk	pp
4r	2ee^>\)	.
*Xped	*	*
4E\ 4G# 4d	.	.
!!LO:LB:g=original
=110	=110	=110
*xywh-6:725,2431,2315,547	*xywh-6:725,2431,2315,547	*
.	(>(<16qqb/LL	.
.	16qqcc#/JJ	.
*ped	*	*
4AA/	8.b\L)	.
.	16a\Jk	.
4r	2ee^>\)	.
*Xped	*	*
4E\ 4A 4c#	.	.
=111	=111	=111
*ped	*	*
4EE/ 4E/	8.f#/L	.
.	(<16f#/Jk	.
4r	4g#/	.
*Xped	*	*
4E\ 4G#\ 4d\	4e/)	.
=112	=112	=112
.	(<16qqa/LL	.
.	16qqb/JJ	.
*ped	*	*
4AA/	8a/L	.
.	8g#/J)	.
4E\ 4A\ 4c#\	8a'</L	.
.	8b'</J	.
*Xped	*	*
4E\ 4A\ 4c#\	8dd'>\L	.
.	8cc#'>\J	.
=113	=113	=113
.	(>(<16qqcc#/LL	.
.	16qqdd/JJ	.
*ped	*	*
4EE/ 4E	8.cc#\L)	.
.	16b\Jk	.
4r	2ee^>\)	.
*Xped	*	*
4E\ 4G# 4d	.	.
=114	=114	=114
.	(>(<16qqb/LL	.
.	16qqcc#/JJ	.
*ped	*	*
4AA/	8.b\L)	.
.	16a\Jk	.
4r	2ee^>\)	.
*Xped	*	*
4E\ 4A\ 4c#\	.	.
=115	=115	=115
!LO:TX:b:t=segue	!	!
4EE/ 4E/	8.f#/L	.
.	(<16f#/Jk	.
4r	4g#/	.
4E\ 4G#\ 4d\	4e/)	.
=116	=116	=116
4AA/	(>2a/	.
4E\ 4A\ 4c#\	.	.
4E\ 4A\ 4c#\	4dd\)	.
=117	=117	=117
.	(>(<16qqcc#/LL	.
.	16qqdd/JJ	.
4EE/ 4E/	8.cc#\L)	.
.	16b\Jk	.
4r	2ee^>\)	.
4E\ 4G#\ 4d\	.	.
!!LO:LB:g=original
=118	=118	=118
*xywh-6:710,3051,2334,454	*xywh-6:710,3051,2334,454	*
.	(>(<16qqb/LL	.
.	16qqcc#/JJ	.
4AA/	8.b\L)	.
.	16a\Jk	.
4r	2ee^>\)	.
4E\ 4A\ 4c#\	.	.
=119	=119	=119
4EE/ 4E/	8.f#/L	.
.	(<16f#/Jk	.
4r	4g#/	.
4E\ 4G#\ 4d\	4e/)	.
=120	=120	=120
.	(<16qqa/LL	.
.	16qqb/JJ	.
4AA/	8a/L)	.
.	8g#/J	.
4E\ 4A\ 4c#\	8a'</L	.
.	8b'</J	.
4E\ 4A\ 4c#\	8dd'>\L	.
.	8cc#'>\J	.
=121	=121	=121
.	(>(<16qqcc#/LL	.
.	16qqdd/JJ	.
4EE/ 4E/	8.cc#\L)	.
.	16b\Jk	.
4r	2ee^>\)	.
4E\ 4G#\ 4d\	.	.
=122	=122	=122
.	(>(<16qqb/LL	.
.	16qqcc#/JJ	.
4AA/	8.b\L)	.
.	16a\Jk	.
4r	2ee^>\)	.
4E\ 4A\ 4c#\	.	.
=123	=123	=123
4EE/ 4E/	8.f#/L	.
.	(<16f#/Jk	.
4r	4g#/	.
4E\ 4G#\ 4d\	4e/)	.
=124	=124	=124
4AA/	(<2a/	.
4C#\ 4E\ 4A\	.	.
4D#X\ 4F#\ 4G#\ 4B#\X	4g#/)	.
!!LO:PB:g=original
=125||	=125||	=125||
*xywh-7:306,735,2379,426	*xywh-7:306,735,2379,426	*
4C#\ 4E\ 4G#\ 4c#\	8.cc#\L	.
.	16cc#\Jk	.
4C#\ 4G#\ 4B#X\	4dd#X\	.
4C#\ 4G#\ 4B#\	8b#X/L	.
.	8g#/J	.
=126	=126	=126
.	(>(<8qqcc#/L	.
.	8qqdd#X/J	.
4C#\ 4E\ 4G#\ 4c#\	8cc#\L)	.
.	8b#X\	.
4C#\ 4E\ 4G#\ 4c#\	8cc#\	.
.	8dd#\	.
4C#\ 4E\ 4G#\ 4c#\	8ee\	.
.	8dd#\J)	.
=127	=127	=127
4C#\ 4E\ 4G#\ 4c#\	(>8.cc#\L	.
.	16cc#\Jk	.
4C#\ 4F#\ 4G#\ 4B#X\	4dd#X\	.
4C#\ 4F#\ 4G#\ 4B#\	8b#X/L	.
.	8g#/J)	.
=128	=128	=128
.	(<8qqcc#/L	.
.	8qqdd#X/J	.
4C#\ 4E\ 4G#\ 4c#\	8cc#\L)	.
.	8b#X\J	.
4C#\ 4E\ 4G#\ 4c#\	8cc#\L	.
.	8dd#X\J	.
4C#\ 4E\ 4G#\ 4c#\	4ee\	.
=129	=129	=129
*^	*	*
*xywh-7:306,735,2379,426	*xywh-7:306,735,2379,426	*xywh-7:306,735,2379,426	*xywh-7:306,735,2379,426
4r	2C#\	(>8dd#X\	.
.	.	8r	.
.	.	8qg#/	.
4F#/ 4G#/ 4B#X/	.	4.gg#^>\)	.
4F#/ 4G#/ 4B#/	4ryy	.	.
.	.	8ff#\	.
=130	=130	=130	=130
4r	2.C#\	(>4.ee\	.
4E/ 4G#/ 4c#/	.	.	.
.	.	8cc#\L	.
4E/ 4G#/ 4c#/	.	8dd#X\	.
.	.	8ee\J)	.
=131	=131	=131	=131
4r	2.C#\	(<4dd#X\	.
4F#/ 4G#/ 4B#X/	.	8b#X/L	.
.	.	8g#/	.
4F#/ 4G#/ 4B#/	.	8a#X/	.
.	.	8b#/J)	.
!!LO:LB:g=original
=132	=132	=132	=132
*xywh-7:289,1260,2400,500	*xywh-7:289,1260,2400,500	*xywh-7:289,1260,2400,500	*
4r	2.C#\	8ryy	.
.	.	(>8qdd#X/	.
.	.	8cc#\L	.
4E\ 4G#\ 4c#\	.	8b#X\	.
.	.	8cc#\	.
4E\ 4G#\ 4c#\	.	8dd#\	.
.	.	8ee^>\J)	.
=133	=133	=133	=133
4r	2C#\	8dd#X\	.
.	.	8r	.
.	.	(>8qg#/	.
4F#/ 4G#/ 4B#X/	.	4.gg#^>\	.
4F#/ 4G#/ 4B#/	4ryy	.	.
.	.	8ff#\)	.
=134	=134	=134	=134
4r	2.C#\	(>4.ee\	.
4E\ 4G#\ 4c#\	.	.	.
.	.	8cc#\L	.
4E\ 4G#\ 4c#\	.	8dd#X\	.
.	.	8ee\J)	.
=135	=135	=135	=135
4r	2.C#\	(<4dd#X\	.
4F#/ 4G#/ 4B#X/	.	8b#X/L	.
.	.	8g#/	.
4F#/ 4G#/ 4B#/	.	8a#X/	.
.	.	8b#/J)	.
*v	*v	*	*
=136	=136	=136
2C#\ 2E\ 2G#\ 2c#\	(>8.cc#\L	.
.	16ee\Jk	.
.	4dd\	.
4C#^\ 4F#\ 4G#\ 4B#X\	4g#^</)	.
=137	=137	=137
2C#\ 2E\ 2G#\ 2c#\	(>8cc#\L	.
.	8ee\	.
.	8dd#X\	.
.	8ff#\	.
4C#^>\ 4F#\ 4G#\ 4B#X\	8ee\	.
.	8dd#\J)	.
=138	=138	=138
2C#\ 2E\ 2G#\ 2c#\	(>8.cc#\L	.
.	16ee\Jk	.
.	4dd#X\	.
4C#^>\ 4F#\ 4G#\ 4B#X\	4g#^</)	.
!!LO:LB:g=original
=139	=139	=139
*xywh-7:306,1881,2358,430	*xywh-7:306,1881,2358,430	*
2C#\ 2E\ 2G#\ 2c#\	(>8.cc#\L	.
.	16ee\Jk	.
.	8dd#X\L	.
.	8ff#\	.
4C#\ 4F#\ 4G#\ 4B#X\	8ee\	.
.	8dd#\J)	.
=140	=140	=140
2C#\ 2E\ 2G#\ 2c#\	(>8.cc#\L	.
.	16ee\Jk	.
.	4dd#X\	.
4C#\ 4F#\ 4G#\ 4B#X\	4g#/)	.
=141	=141	=141
2C#\ 2E\ 2G#\ 2c#\	(>8cc#\L	.
.	8ee\	.
.	8dd#X\	.
.	8ff#\	.
4C#\ 4F#\ 4G#\ 4B#X\	8ee\	.
.	8dd#\J)	.
=142	=142	=142
2C#\ 2E\ 2G#\ 2c#\	(>8cc#\L	.
.	8ee\	.
.	8dd#X\	.
.	8ff#\	.
4C#\ 4F#\ 4G#\ 4B#X\	8ee\	.
.	8dd#\J)	.
=143	=143	=143
2C#\ 2E\ 2G#\ 2c#\	(>8cc#\L	.
.	8ee\	.
.	8dd#X\	.
.	8ff#\	.
4C#\ 4F#\ 4G#\ 4B#X\	8ee\	.
.	8dd#\J)	.
=144	=144	=144
.	(>(<16qqcc#/LL	.
.	16qqdd#X/JJ	.
4C#\ 4E\ 4G#\ 4c#\	8.cc#\L)	.
.	16b#X\Jk	.
4r	4cc#\	.
4r	4dd#^>\)	.
!!LO:LB:g=original
=145	=145	=145
*xywh-7:293,2324,2396,662	*xywh-7:293,2324,2396,662	*
.	(>(<16qqcc#/LL	.
.	16qqdd#X/JJ	.
2.r	8.cc#\L)	.
.	16b#X\Jk	.
.	4cc#\	.
.	4dd#X^>\)	.
=146	=146	=146
.	(>(<16qqcc#/LL	.
!	!LO:TX:b:t=rall	!
.	16qqdd#X/JJ	.
2.r	8.cc#\L)	.
.	16b#X\Jk	.
.	4cc#\	.
.	4dd#X^>\)	.
=147	=147	=147
.	(>(<16qqcc#/LL	>
.	16qqdd#X/JJ	.
2.r	8.cc#\L)	.
.	16b#X\Jk	.
.	4cc#\	.
.	4ddn^>\)	]]
=148||	=148||	=148||
.	(>(<16qqcc#/LL	.
.	16qqdd/JJ	.
*ped	*	*
2EE/ 2E	8.cc#\L)	pp
.	16b\Jk	.
.	2ee^>\)	.
*Xped	*	*
4E\ 4G# 4d	.	.
=149	=149	=149
.	(>(<16qqcc#/LL	.
.	16qqdd/JJ	.
*2/left	*	*
2AA/	8.cc#\L)	.
.	16b\Jk	.
.	2ee^>\)	.
*Xped	*	*
4E\ 4A\ 4c#\	.	.
=150	=150	=150
*2/right	*	*
*ped	*	*
2EE/ 2E/	(<8.f#/L	.
.	16f#/Jk	.
.	4g#/	.
*Xped	*	*
4E\ 4G#\ 4d\	4e/)	.
=151	=151	=151
.	(<16qqa/LL	.
.	16qqb/JJ	.
*ped	*	*
4AA/	8a/L)	.
.	8g#/	.
4E\ 4A\ 4c#\	8a'</	.
.	8b'</	.
*Xped	*	*
4E\ 4A\ 4c#\	8cc#'</	.
.	8dd'</J	.
=152	=152	=152
.	(>(<16qqcc#/LL	.
.	16qqdd/JJ	.
2EE/ 2E/	8.cc#\L)	.
!	!LO:N:vis=8	!
.	16b\Jk	.
.	2ee^>\)	.
4E\ 4G#\ 4d\	.	.
!!LO:LB:g=original
=153	=153	=153
*xywh-7:289,3032,2387,533	*xywh-7:289,3032,2387,533	*
.	(>(<16qqb/LL	.
.	16qqcc#/JJ	.
2AA/	8.b\L)	.
.	16a\Jk	.
.	2ee^>\)	.
4E\ 4A\ 4c#\	.	.
=154	=154	=154
.	(>(<16qqb/LL	.
.	16qqcc#/JJ	.
2AA/	8.b\L)	.
.	16a\Jk	.
.	2ee^>\)	.
4F#\ 4A\ 4d\	.	.
=155	=155	=155
.	(>(<16qqb/LL	.
.	16qqcc#/JJ	.
2AA/	8.b\L)	.
.	16a\Jk	.
.	2ff#X^>\)	.
4F#X\ 4cn\ 4d#X\	.	.
=156	=156	=156
4GGGn/ 4GGn/	8.gn\L 8.ee\ 8.ggn\	ff
.	16g\Jk 16ee\ 16gg\	.
4E\ 4Gn\ 4cn\	4a\ 4ffn\ 4aa\	.
4E\ 4G\ 4c\	4g\ 4ee\ 4gg\	.
=157	=157	=157
4GGGn/ 4GGn/	4.ccn^>\ 4.ee\ 4.cccn\	.
2E\ 2Gn\ 2cn\	.	.
.	8b\L 8ggn\ 8bb\	.
.	8a\ 8ffn\ 8aa\	.
.	8gn\J 8ee\ 8gg\	.
=158	=158	=158
4GGGn/ 4GGn/	8a\L 8aa\	.
!	!LO:TX:t=P:problem=brakująca miara	!
.	8ryy	.
2Fn\ 2Gn\ 2B\	8gn\ 8ggn	.
.	8f#X\J 8ff#X\	.
.	8g#X\L 8gg#X\	.
.	8a\J 8aa\	.
=159	=159	=159
2.r	8a#X\L 8aa#X\	.
.	8b\ 8bb\	.
.	8ccn\ 8cccn\	.
.	8cc#X\J 8ccc#X\	.
.	8dd\L 8ddd\	.
.	8dd#X\J 8ddd#X\	.
!!LO:PB:g=original
=160||	=160||	=160||
*xywh-8:653,616,2356,529	*xywh-8:653,616,2356,529	*
*k[]	*k[]	*
*	*8va	*
4CC/ 4C/	8.ee/L 8.ccc/ 8.eee/	ff
.	16ee/Jk 16ccc/ 16eee/	.
4E\ 4G\ 4c\	4ff#X\ 4ddd#X\ 4fff#X\	.
4E\ 4G\ 4c\	4ff#\ 4ddd#\ 4fff#\	.
=161	=161	=161
4CC/ 4C/	4aa\ 4fffn\ 4aaa\	.
2E^>\ 2G\ 2c\	4..gg^>\ 4..eee\ 4..ggg\	.
.	16eee\ 16ggg\ 16eeee\	pp
=162	=162	=162
4GG/	8.eee\L 8.ggg\ 8.eeee\	.
.	16ddd\Jk 16fff\ 16dddd\	.
2G\ 2B\ 2d\ 2f\	4.ddd^<\ 4.fff\ 4.dddd\	.
.	8eee\ 8ggg\ 8eeee\	.
=163	=163	=163
4CC/ 4C/	8.ddd\L 8.fff\ 8.dddd\	.
.	16ccc\Jk 16eee\ 16cccc\	.
2G\ 2c\ 2e\	2ccc\ 2eee\ 2cccc\	.
=164	=164	=164
!	!	!LO:DY:rj
4CC/ 4C/	8.ee/L 8.ccc/ 8.eee/	ff
.	16ee/Jk 16ccc/ 16eee/	.
4E\ 4G\ 4c\	4ff\ 4ddd\ 4fff\	.
4E\ 4G\ 4c\	4ff#X\ 4ddd#X\ 4fff#X\	.
!!LO:LB:g=original
=165	=165	=165
*xywh-8:653,1186,2356,549	*xywh-8:653,1186,2356,549	*
4CC/ 4C/	4aa\ 4fff\ 4aaa\	.
2E^>\ 2G\ 2c\	4.gg^>\ 4.eee\ 4.ggg\	.
*	*X8va	*
.	8ee\ 8eee\	p
=166	=166	=166
4DD/ 4D/	8.ee\L 8.eee\	.
.	16b\Jk 16ddd\	.
4D\ 4F#X\ 4A\	4b\ 4ddd\	.
4D\ 4F#\ 4A\	4a\ 4ccc\	.
=167	=167	=167
4GGG/ 4GG/	4.b^>\ 4.bb\	.
2C\ 2E\ 2G\ 2B\	.	.
.	8g\L 8gg\	.
.	8f#X\ 8ff#X\	.
.	8e\J 8ee\	.
=168	=168	=168
!	!LO:TX:b:t=8	!
4DD/ 4D/	(>[>4dd^<\ 4ddd\	.
4D\ 4F#X\ 4A\ 4c\	8.dd\L]	.
.	16cc\Jk)	.
4D\ 4F#\ 4A\ 4c\	(<8.a/L	.
.	16b/Jk)	.
=169	=169	=169
4GG/	(>8.g\L	.
.	16b\Jk)	.
2D^<\ 2G\ 2B\	4ee\	>
.	4dd\	]]
!!LO:LB:g=original
=170	=170	=170
*xywh-8:653,1845,2352,468	*xywh-8:653,1845,2352,468	*
4DD/ 4D/	(>8.dd\L	.
.	16ff#X\Jk)	.
2D^<\ 2F#X\ 2A\ 2c\	4b\ 4aa\	>
.	4a\ 4bb\	]]
=171	=171	=171
4BB/	(>8.gg\L	.
.	16bb\Jk)	.
2D^<\ 2G\ 2B\	4ee\ 4eee	>
.	4dd\ 4ddd	]]
=172	=172	=172
4DD/ 4D/	(>[>4dd\	.
4D\ 4F#X\ 4A\ 4c\	8.dd\L]	.
.	16cc\Jk)	.
4D\ 4F#\ 4A\ 4c\	8.a/L	.
.	16b/Jk	.
=173	=173	=173
4GG/	(<8.g/L	.
.	16b/Jk)	.
2D\ 2G\ 2B\	4ee\	.
.	4dd\	.
=174	=174	=174
4DD/ 4D	4dd\ 4ddd\	.
4D\ 4F#X\ 4A\ 4c\	8cc\L 8ccc\	.
.	8a\ 8aa\	.
4D\ 4F#\ 4A\ 4c\	8e\ 8ee\	.
.	8f#X\J 8ff#X\	.
!!LO:LB:g=original
=175	=175	=175
*xywh-8:633,2329,2381,586	*xywh-8:633,2329,2381,586	*
8G/L 8B/	8g\L 8gg\	.
16GG/Jk 16G/	16g\Jk 16gg\	.
16r	16r	.
!	!LO:TX:b:t=con inpeto	!
8FF#X^/L 8F#X/	8a^>\L 8aa\	.
8FFn^/ 8Fn/	8b^>\ 8bb\	.
8EE^/ 8E/	8cc^>\ 8ccc\	.
8DD^/J 8D/	8dd^>\J 8ddd\	.
=176	=176	=176
4CC/ 4C/	8.ee\L 8.ccc\ 8.eee\	ff
.	16ee\Jk 16ccc\ 16eee\	.
4E\ 4G\ 4c\	4ff\ 4ddd\ 4fff\	.
4E\ 4G\ 4c\	4ff#X\ 4ddd#X\ 4fff#X\	.
=177	=177	=177
4CC/ 4C/	4aa\ 4fffn\ 4aaa\	.
2E^>\ 2G\ 2c\	4.gg^>\ 4.eee\ 4.ggg\	.
.	8ee\ 8gg\ 8eee\	pp
=178	=178	=178
4GG/	8.ee\L 8.gg\ 8.eee\	.
.	16dd\Jk 16ff\ 16ddd\	.
2G\ 2B\ 2d\ 2f\	4.dd^>\ 4.ff\ 4.ddd\	.
.	8ee\ 8gg\ 8eee\	.
=179	=179	=179
4CC/ 4C/	8.dd\L 8.ff\ 8.ddd\	.
.	16cc\Jk 16ee\ 16ccc\	.
2G\ 2c\ 2e\	2cc\ 2ee\ 2ccc\	.
!!LO:LB:g=original
=180	=180	=180
*xywh-8:629,2993,2377,521	*xywh-8:629,2993,2377,521	*
4CC/ 4C/	8.e/L 8.cc/ 8.ee/	ff
.	16e/Jk 16cc/ 16ee/	.
4E\ 4G\ 4c\	4f#X\ 4dd#X\ 4ff#X\	.
4E\ 4G\ 4c\	4f#\ 4dd#\ 4ff#\	.
=181	=181	=181
4CC/ 4C/	4a\ 4ffn\ 4aa\	.
2E^>\ 2G\ 2c\	4.g^>\ 4.ee\ 4.gg\	.
.	8ee\	.
=182	=182	=182
*	*^	*
*xywh-8:629,2993,2377,521	*xywh-8:629,2993,2377,521	*xywh-8:629,2993,2377,521	*
4FF/ 4F/	(>8.ee\L	4ryy	.
.	16dd\Jk)	.	.
!	!	!	!LO:HP:a
4A\ 4d\	4.dd/	2a\	>
4FF/ 4F/	.	.	.
.	8cc/	.	.
*	*v	*v	*
=183	=183	=183
4GG/ 4G/	(>8b\L	]
.	8dd\J	.
2G\ 2B\ 2d\	16aa\)	.
.	16r	.
.	8ee^>\L 8gg	.
.	8dd#X^>\ 8ff#X	.
.	8ddn^>\J 8ffn	.
=184	=184	=184
4CC/ 4C/	8.e/L 8.cc/ 8.ee/	.
.	16e/Jk 16cc/ 16ee/	.
4E\ 4G\ 4c\	4f\ 4dd\ 4ff\	.
4E\ 4G\ 4c\	4f#X\ 4dd#X\ 4ff#X\	.
=185	=185	=185
4CC/ 4C/	4a\ 4ffn\ 4aa\	.
2E^>\ 2G\ 2c\	4..g^>\ 4..ee\ 4..gg\	.
!	!	!LO:DY:rj
.	16ee\ 16gg\ 16eee\	pp
!!LO:PB:g=original
=186	=186	=186
*xywh-9:226,731,2445,509	*xywh-9:226,731,2445,509	*
4GG/	8.ee\L 8.gg\ 8.eee\	.
.	16dd\Jk 16ff\ 16ddd\	.
2G\ 2B\ 2d\ 2f\	4.dd^>\ 4.ff\ 4.ddd\	.
.	8ee\ 8gg\ 8eee\	.
=187	=187	=187
!	!LO:N:vis=4.	!
4CC/ 4C/	8.dd\ 8.ff\ 8.ddd\	.
!	!LO:N:vis=4	!
.	16cc\ 16ee\ 16ccc\	.
2G\ 2c\ 2e\	2cc\ 2ee\ 2ccc\	.
=188	=188	=188
4CC/ 4C/	8.e/L 8.cc/ 8.ee/	ff
.	16e/Jk 16cc/ 16ee/	.
4E\ 4G\ 4c\	4f\ 4dd\ 4ff\	.
4E\ 4G\ 4c\	4f#X\ 4dd#X\ 4ff#X\	.
=189	=189	=189
4CC/ 4C/	4a\ 4ffn\ 4aa\	.
2E^>\ 2G\ 2c\	4.a^>\ 4.ee\ 4.gg\	.
.	8ee\	.
=190	=190	=190
!	!LO:N:vis=16.	!
4DD/ 4D/	(>8.ee\L	.
!	!LO:N:vis=8	!
.	16dd\Jk)	.
4D\ 4F#X\ 4A\ 4c\	4dd\	.
4D\ 4F#\ 4A\ 4c\	4ee\	.
=191	=191	=191
4GG/	(>4.dd\	.
2D\ 2F#X\ 2G\ 2B\	.	.
.	8cc\L	.
.	8a\	.
.	8b\J)	.
!!LO:LB:g=original
=192	=192	=192
*xywh-9:205,1380,2454,459	*xywh-9:205,1380,2454,459	*
4C\ 4E\ 4G\ 4c\	(>8.cc\L	.
.	16cc\Jk	.
4C\ 4F\ 4G\ 4B\	4dd^>\	.
4C\ 4F\ 4G\ 4B\	8b/L	.
.	8g/J)	.
=193	=193	=193
.	(>(<16qqcc/LL	.
.	16qqdd/JJ	.
4C\ 4E\ 4G\ 4c\	8cc\L)	.
.	8b\	.
4C\ 4E\ 4G\ 4c\	8cc\	.
.	8dd\	.
4C\ 4E\ 4G\ 4c\	8ee\	.
.	8dd\J)	.
=194	=194	=194
4C\ 4E\ 4G\ 4c\	(>8.cc\L	.
.	16cc\Jk	.
4C\ 4F\ 4G\ 4B\	4dd^>\	.
4C\ 4F\ 4G\ 4B\	8b/L	.
.	8g/J)	.
=195	=195	=195
.	(>(<16qqcc/LL	.
.	16qqdd/JJ	.
4C\ 4E\ 4G\ 4c\	8.cc\L)	.
.	16b\K	.
4C\ 4E\ 4G\ 4c\	8cc\	.
.	8dd\J	.
4C\ 4E\ 4G\ 4c\	4ee^>\)	.
=196	=196	=196
*^	*	*
*	*xywh-9:205,1380,2454,459	*xywh-9:205,1380,2454,459	*
4r	2.C^<\	(>8dd\	.
.	.	8r	.
.	.	8qg/	.
4F/ 4G/ 4B/	.	4.gg^>\)	.
4F/ 4G/ 4B/	.	.	.
.	.	8ff\	.
=197	=197	=197	=197
4r	2.C^<\	(>4.ee^>\	.
4E\ 4G\ 4c\	.	.	.
.	.	8cc\L	.
4E\ 4G\ 4c\	.	8dd\	.
.	.	8ee\J)	.
!!LO:LB:g=original
=198	=198	=198	=198
*xywh-9:226,1956,2437,467	*xywh-9:226,1956,2437,467	*xywh-9:226,1956,2437,467	*
4r	2.C^<\	(4dd^>\	.
4F/ 4G/ 4B/	.	8cc/L	.
.	.	8a/	.
4F/ 4G/ 4B/	.	8b/	.
.	.	8g/J)	.
=199	=199	=199	=199
.	.	(>(<16qqcc/LL	.
.	.	16qqdd/JJ	.
4r	2.C^<\	8cc\L)	.
.	.	8b\	.
4E\ 4G\ 4c\	.	8cc\	.
.	.	8dd\J	.
4E\ 4G\ 4c\	.	4ee^>\)	.
=200	=200	=200	=200
4r	2.C^<\	8dd\	.
.	.	8r	.
.	.	(>8qg/	.
4F/ 4G/ 4B/	.	4.gg^>\	.
4F/ 4G/ 4B/	.	.	.
.	.	8ff\)	.
=201	=201	=201	=201
4r	2.C^<\	(>4.ee^>\	.
4E\ 4G\ 4c\	.	.	.
.	.	8cc\L	.
4E\ 4G\ 4c\	.	8dd\	.
.	.	8ee\J)	.
!!LO:LB:g=original
=202	=202	=202	=202
*xywh-9:226,2552,2437,451	*xywh-9:226,2552,2437,451	*xywh-9:226,2552,2437,451	*
4r	2.C^<\	(>4dd^>\	.
4F/ 4G 4B	.	8cc/L	.
.	.	8a/	.
4F/ 4G 4B	.	8b/	.
.	.	8g/J)	.
*v	*v	*	*
=203	=203	=203
2C\ 2E\ 2G\ 2c\	(>8.cc\L	.
.	16ee\Jk	.
.	4dd\	.
4C\ 4F\ 4G\ 4B\	4g^</)	.
=204	=204	=204
2C\ 2E\ 2G\ 2c\	(>8cc\L	.
.	8ee\	.
.	8dd\	.
.	8ff\	.
4C\ 4F\ 4G\ 4B\	8ee\	.
.	8dd\J)	.
=205	=205	=205
2C\ 2E\ 2G\ 2c\	(>8.cc\L	.
.	16ee\Jk	.
.	4dd\	.
4C\ 4F\ 4G\ 4B\	4g^</)	.
=206	=206	=206
2C\ 2E\ 2G\ 2c\	(>8cc\L	.
.	8ee\	.
.	8dd\	.
.	8ff\	.
4C\ 4F\ 4G\ 4B\	8ee\	.
.	8dd\J)	.
!!LO:LB:g=original
=207	=207	=207
*xywh-9:222,3073,2441,641	*xywh-9:222,3073,2441,641	*
2C\ 2E\ 2G\ 2c\	(>8.cc\L	.
.	16ee\Jk	.
.	4dd\	.
4C^<\ 4F\ 4G\ 4B\	4g^</)	.
=208	=208	=208
4C\ 4E\ 4G\ 4c\	4cc\	.
4r	4r	.
4r	4r	.
=209	=209	=209
2.CC^</ 2.GG/	2.cc^>\ 2.gg\	pp
=210	=210	=210
*^	*	*
!LO:TX:b:t=con fuoco	!	!	!LO:DY:rj
8.D/L 8.B/	2GG\	8.g\L 8.dd\ 8.ff\ 8.gg\	ff
16D/Jk 16B/	.	16g\Jk 16dd\ 16ff\ 16gg\	.
4D/ 4B/	.	4a\ 4dd\ 4ff\ 4aa\	.
4D/ 4B/	4ryy	4b\ 4dd\ 4ff\ 4bb\	.
*v	*v	*	*
=211	=211	=211
4C\ 4G\ 4e\	4cc\ 4ee\ 4gg\ 4ccc\	.
*	*8va	*
4CC/ 4C/	4ccc\ 4eee\ 4ggg\ 4cccc\	.
*	*X8va	*
!LO:TX:b:t=Fine	!	!
4r;>	4r;>	.
==	==	==
*-	*-	*-
!!!system-decoration: [{g1}]
!!!RDF**kern: > = above
!!!RDF**kern: < = below
!!!ENC: Filip Voros
!!!END: 2022-02-27
!!!EED: Jędrzej Mróz
!!!EEV: 2022-03-01
!!!YEC: Copyright 2022 Narodowy Instytut Fryderyka Chopina (https://polishscores.org)
!!!YEM: License CC-BY-4.0 (https://creativecommons.org/licenses/by/4.0)
!!!IIIF: https://polona.pl/iiif/item/MTA1NjQ1Ng/manifest.json
!!!ENC-iiif: Magdalena Agnieszka Krok
!!!END-iiif: 2022-08-30
